src/assets/img/monumentos_g.svg

<svg fill="none" viewBox="0 0 150 200" xmlns="http://www.w3.org/2000/svg"><g fill="#fff"><path d="m76.6527 166.023c1.4601-2.737 3.0007-5.637 3.0007-11.292 0-5.656-1.5406-8.556-3.0007-11.293l-.0098-.019c-1.3726-2.573-2.6621-4.991-2.6621-9.959 0-4.967 1.2894-7.384 2.662-9.957l.0098-.018c1.4601-2.737 3.0008-5.638 3.0008-11.292s-1.5407-8.554-3.0008-11.291l-.0097-.018c-1.3726-2.5725-2.6621-4.9896-2.6621-9.9569 0-4.9672 1.2895-7.3843 2.6621-9.9571l.0097-.0184c1.4601-2.7369 3.0008-5.6368 3.0008-11.2911h-2.7953c0 4.9672-1.2894 7.3843-2.662 9.9571l-.0098.0183c-1.46 2.737-3.0008 5.6369-3.0008 11.2912s1.5408 8.5542 3.0009 11.2909l.0098.019c1.3726 2.572 2.6619 4.989 2.6619 9.956 0 4.968-1.2895 7.385-2.6621 9.958l-.0097.018c-1.46 2.737-3.0008 5.637-3.0008 11.291 0 5.655 1.5407 8.556 3.0008 11.293l.0098.019c1.3725 2.573 2.662 4.99 2.662 9.959 0 4.968-1.2895 7.385-2.6621 9.959l-.0097.018c-1.4601 2.737-3.0008 5.637-3.0008 11.292h2.7953c0-4.968 1.2895-7.385 2.662-9.958z"/><path d="m89.2862 154.729c0 5.655-1.5406 8.555-3.0007 11.292l-.0099.019c-1.3725 2.573-2.6619 4.99-2.6619 9.958h-2.7953c0-5.655 1.5407-8.555 3.0007-11.292l.0097-.018c1.3726-2.573 2.6621-4.991 2.6621-9.959 0-4.969-1.2894-7.386-2.662-9.959l-.0098-.019c-1.4601-2.737-3.0007-5.637-3.0007-11.293 0-5.654 1.5407-8.554 3.0007-11.291l.0097-.018c1.3726-2.573 2.6621-4.99 2.6621-9.958 0-4.967-1.2893-7.384-2.6619-9.956l-.0098-.019c-1.4601-2.7366-3.0008-5.6366-3.0008-11.2909s1.5407-8.5542 3.0008-11.2911l.0097-.0183c1.3726-2.5729 2.662-4.9899 2.662-9.9572h2.7953c0 5.6543-1.5407 8.5543-3.0008 11.2912l-.0097.0183c-1.3726 2.5729-2.662 4.9899-2.662 9.9571 0 4.9674 1.2895 7.3844 2.662 9.9569l.0097.018c1.4601 2.737 3.0008 5.637 3.0008 11.291 0 5.655-1.5407 8.555-3.0007 11.292l-.0099.018c-1.3725 2.573-2.6619 4.99-2.6619 9.957 0 4.969 1.2894 7.386 2.662 9.959l.0098.019c1.4601 2.737 3.0007 5.637 3.0007 11.293z"/><path d="m115.773 52.9962v25.0905h15.012v81.0403h-15.012v-52.482c0 11.968-10.01 22.253-24.3507 26.805v-66.633c0-6.5456-7.4-11.8511-16.5304-11.8511-9.1294-.0009-16.5295 5.3055-16.5295 11.8511v66.633c-14.3408-4.552-24.3507-14.837-24.3507-26.805v52.482h-15.0117v-81.0403h15.0117v-25.0905c0-16.1867 18.3026-29.3087 40.8802-29.3087 22.5785 0 40.8811 13.122 40.8811 29.3087z"/><path d="m68.964 154.73c0 5.655-1.5407 8.555-3.0008 11.292l-.0098.019c-1.3726 2.573-2.662 4.99-2.662 9.958h-2.7953c0-5.655 1.5407-8.555 3.0007-11.292l.0097-.018c1.3726-2.574 2.6622-4.991 2.6622-9.959 0-4.969-1.2895-7.386-2.6621-9.959l-.0098-.019c-1.46-2.737-3.0007-5.638-3.0007-11.293 0-5.654 1.5407-8.554 3.0008-11.291l.0097-.018c1.3726-2.573 2.6621-4.99 2.6621-9.958 0-4.967-1.2894-7.384-2.6619-9.956l-.0099-.019c-1.4601-2.7367-3.0008-5.6366-3.0008-11.2909s1.5407-8.5542 3.0008-11.2911l.0098-.0183c1.3725-2.5729 2.662-4.99 2.662-9.9572h2.7953c0 5.6543-1.5407 8.5542-3.0008 11.2912l-.0098.0183c-1.3726 2.5729-2.662 4.9899-2.662 9.9571 0 4.9673 1.2895 7.3844 2.6621 9.9569l.0097.018c1.46 2.737 3.0008 5.637 3.0008 11.291 0 5.655-1.5407 8.555-3.0008 11.292l-.0099.018c-1.3725 2.573-2.6619 4.99-2.6619 9.957 0 4.969 1.2895 7.386 2.662 9.959l.0098.019c1.4601 2.737 3.0008 5.637 3.0008 11.293z"/></g></svg>

<svg viewBox="0 0 150 200" fill="none" xmlns="http://www.w3.org/2000/svg">
<path d="M76.6527 166.023C78.1128 163.286 79.6534 160.386 79.6534 154.731C79.6534 149.075 78.1128 146.175 76.6527 143.438L76.6429 143.419C75.2703 140.846 73.9808 138.428 73.9808 133.46C73.9808 128.493 75.2702 126.076 76.6428 123.503L76.6526 123.485C78.1127 120.748 79.6534 117.847 79.6534 112.193C79.6534 106.539 78.1127 103.639 76.6526 100.902L76.6429 100.884C75.2703 98.3115 73.9808 95.8944 73.9808 90.9271C73.9808 85.9599 75.2703 83.5428 76.6429 80.97L76.6526 80.9516C78.1127 78.2147 79.6534 75.3148 79.6534 69.6605H76.8581C76.8581 74.6277 75.5687 77.0448 74.1961 79.6176L74.1863 79.6359C72.7263 82.3729 71.1855 85.2728 71.1855 90.9271C71.1855 96.5814 72.7263 99.4813 74.1864 102.218L74.1962 102.237C75.5688 104.809 76.8581 107.226 76.8581 112.193C76.8581 117.161 75.5686 119.578 74.196 122.151L74.1863 122.169C72.7263 124.906 71.1855 127.806 71.1855 133.46C71.1855 139.115 72.7262 142.016 74.1863 144.753L74.1961 144.772C75.5686 147.345 76.8581 149.762 76.8581 154.731C76.8581 159.699 75.5686 162.116 74.196 164.69L74.1863 164.708C72.7262 167.445 71.1855 170.345 71.1855 176H73.9808C73.9808 171.032 75.2703 168.615 76.6428 166.042L76.6527 166.023Z" fill="white"/>
<path d="M89.2862 154.729C89.2862 160.384 87.7456 163.284 86.2855 166.021L86.2756 166.04C84.9031 168.613 83.6137 171.03 83.6137 175.998H80.8184C80.8184 170.343 82.3591 167.443 83.8191 164.706L83.8288 164.688C85.2014 162.115 86.4909 159.697 86.4909 154.729C86.4909 149.76 85.2015 147.343 83.8289 144.77L83.8191 144.751C82.359 142.014 80.8184 139.114 80.8184 133.458C80.8184 127.804 82.3591 124.904 83.8191 122.167L83.8288 122.149C85.2014 119.576 86.4909 117.159 86.4909 112.191C86.4909 107.224 85.2016 104.807 83.829 102.235L83.8192 102.216C82.3591 99.4794 80.8184 96.5794 80.8184 90.9251C80.8184 85.2708 82.3591 82.3709 83.8192 79.634L83.8289 79.6157C85.2015 77.0428 86.4909 74.6258 86.4909 69.6585H89.2862C89.2862 75.3128 87.7455 78.2128 86.2854 80.9497L86.2757 80.968C84.9031 83.5409 83.6137 85.9579 83.6137 90.9251C83.6137 95.8925 84.9032 98.3095 86.2757 100.882L86.2854 100.9C87.7455 103.637 89.2862 106.537 89.2862 112.191C89.2862 117.846 87.7455 120.746 86.2855 123.483L86.2756 123.501C84.9031 126.074 83.6137 128.491 83.6137 133.458C83.6137 138.427 84.9031 140.844 86.2757 143.417L86.2855 143.436C87.7456 146.173 89.2862 149.073 89.2862 154.729Z" fill="white"/>
<path d="M115.773 52.9962V78.0867H130.785V159.127H115.773V106.645C115.773 118.613 105.763 128.898 91.4223 133.45V66.817C91.4223 60.2714 84.0223 54.9659 74.8919 54.9659C65.7625 54.965 58.3624 60.2714 58.3624 66.817V133.45C44.0216 128.898 34.0117 118.613 34.0117 106.645V159.127H19V78.0867H34.0117V52.9962C34.0117 36.8095 52.3143 23.6875 74.8919 23.6875C97.4704 23.6875 115.773 36.8095 115.773 52.9962Z" fill="white"/>
<path d="M68.964 154.73C68.964 160.385 67.4233 163.285 65.9632 166.022L65.9534 166.041C64.5808 168.614 63.2914 171.031 63.2914 175.999H60.4961C60.4961 170.344 62.0368 167.444 63.4968 164.707L63.5065 164.689C64.8791 162.115 66.1687 159.698 66.1687 154.73C66.1687 149.761 64.8792 147.344 63.5066 144.771L63.4968 144.752C62.0368 142.015 60.4961 139.114 60.4961 133.459C60.4961 127.805 62.0368 124.905 63.4969 122.168L63.5066 122.15C64.8792 119.577 66.1687 117.16 66.1687 112.192C66.1687 107.225 64.8793 104.808 63.5068 102.236L63.4969 102.217C62.0368 99.4803 60.4961 96.5804 60.4961 90.9261C60.4961 85.2718 62.0368 82.3719 63.4969 79.635L63.5067 79.6167C64.8792 77.0438 66.1687 74.6267 66.1687 69.6595H68.964C68.964 75.3138 67.4233 78.2137 65.9632 80.9507L65.9534 80.969C64.5808 83.5419 63.2914 85.9589 63.2914 90.9261C63.2914 95.8934 64.5809 98.3105 65.9535 100.883L65.9632 100.901C67.4232 103.638 68.964 106.538 68.964 112.192C68.964 117.847 67.4233 120.747 65.9632 123.484L65.9533 123.502C64.5808 126.075 63.2914 128.492 63.2914 133.459C63.2914 138.428 64.5809 140.845 65.9534 143.418L65.9632 143.437C67.4233 146.174 68.964 149.074 68.964 154.73Z" fill="white"/>
</svg>
